images/ProcessIcons/Determine Audience.svg

<svg width="24" height="24" viewBox="0 0 24 24" fill="none" xmlns="http://www.w3.org/2000/svg">
<path d="M11.9844 3.58811C12.6932 3.58811 13.3729 3.86967 13.8741 4.37084C14.3752 4.87201 14.6568 5.55175 14.6568 6.26051C14.6568 6.96928 14.3752 7.64901 13.8741 8.15019C13.3729 8.65136 12.6932 8.93291 11.9844 8.93291C11.2755 8.93291 10.5956 8.6513 10.0943 8.15001C9.59301 7.64873 9.31139 6.96884 9.31139 6.25991C9.31139 5.55099 9.59301 4.8711 10.0943 4.36982C10.5956 3.86853 11.2755 3.58691 11.9844 3.58691V3.58811ZM11.9844 4.78811C11.5939 4.78811 11.2194 4.94324 10.9433 5.21937C10.6671 5.4955 10.512 5.87001 10.512 6.26051C10.512 6.65102 10.6671 7.02553 10.9433 7.30166C11.2194 7.57779 11.5939 7.73291 11.9844 7.73291C12.3751 7.73291 12.7497 7.57772 13.026 7.30148C13.3022 7.02524 13.4574 6.65058 13.4574 6.25991C13.4574 5.86925 13.3022 5.49459 13.026 5.21835C12.7497 4.9421 12.3751 4.78691 11.9844 4.78691V4.78811ZM3.61919 13.8001C3.61919 13.9592 3.55598 14.1119 3.44346 14.2244C3.33094 14.3369 3.17832 14.4001 3.01919 14.4001C2.86006 14.4001 2.70745 14.3369 2.59493 14.2244C2.48241 14.1119 2.41919 13.9592 2.41919 13.8001V10.8169C2.41923 10.523 2.52714 10.2393 2.72245 10.0197C2.91776 9.80003 3.18689 9.6597 3.47879 9.62531L3.61919 9.61691H6.92759C6.75299 9.9182 6.64649 10.2541 6.61559 10.6009L6.60599 10.8169H3.61799V13.8001H3.61919ZM20.988 14.4001C21.1471 14.4001 21.2997 14.3369 21.4123 14.2244C21.5248 14.1119 21.588 13.9592 21.588 13.8001V10.8169L21.5796 10.6777C21.5455 10.3856 21.4053 10.1162 21.1856 9.92062C20.9659 9.72506 20.6821 9.61699 20.388 9.61691H17.0472C17.2224 9.92051 17.3352 10.2685 17.3616 10.6381L17.3676 10.8181H20.388V13.8001C20.388 13.9592 20.4512 14.1119 20.5637 14.2244C20.6763 14.3369 20.8289 14.4001 20.988 14.4001V14.4001ZM14.9688 9.61691C15.2629 9.61699 15.5467 9.72506 15.7664 9.92062C15.9861 10.1162 16.1263 10.3856 16.1604 10.6777L16.1676 10.8169V13.8001C16.1676 13.9592 16.1044 14.1119 15.9919 14.2244C15.8793 14.3369 15.7267 14.4001 15.5676 14.4001C15.4085 14.4001 15.2559 14.3369 15.1433 14.2244C15.0308 14.1119 14.9676 13.9592 14.9676 13.8001V10.8169H9.00599V13.8001C9.00599 13.9592 8.94278 14.1119 8.83026 14.2244C8.71774 14.3369 8.56512 14.4001 8.40599 14.4001C8.24686 14.4001 8.09425 14.3369 7.98173 14.2244C7.86921 14.1119 7.80599 13.9592 7.80599 13.8001V10.8169C7.80603 10.523 7.91394 10.2393 8.10925 10.0197C8.30456 9.80003 8.57369 9.6597 8.86559 9.62531L9.00599 9.61691H14.9676H14.9688ZM20.2656 6.63731C20.2656 6.02832 20.0237 5.44428 19.5931 5.01366C19.1624 4.58303 18.5784 4.34111 17.9694 4.34111C17.3604 4.34111 16.7764 4.58303 16.3457 5.01366C15.9151 5.44428 15.6732 6.02832 15.6732 6.63731C15.6732 7.2463 15.9151 7.83035 16.3457 8.26097C16.7764 8.69159 17.3604 8.93351 17.9694 8.93351C18.5784 8.93351 19.1624 8.69159 19.5931 8.26097C20.0237 7.83035 20.2656 7.2463 20.2656 6.63731V6.63731ZM16.8732 6.63731C16.8732 6.34658 16.9887 6.06776 17.1943 5.86218C17.3998 5.65661 17.6787 5.54111 17.9694 5.54111C18.2601 5.54111 18.5389 5.65661 18.7445 5.86218C18.9501 6.06776 19.0656 6.34658 19.0656 6.63731C19.0656 6.92804 18.9501 7.20687 18.7445 7.41244C18.5389 7.61802 18.2601 7.73351 17.9694 7.73351C17.6787 7.73351 17.3998 7.61802 17.1943 7.41244C16.9887 7.20687 16.8732 6.92804 16.8732 6.63731ZM6.01919 4.34051C6.62818 4.34051 7.21223 4.58243 7.64285 5.01306C8.07347 5.44368 8.31539 6.02772 8.31539 6.63671C8.31539 7.2457 8.07347 7.82975 7.64285 8.26037C7.21223 8.69099 6.62818 8.93291 6.01919 8.93291C5.4102 8.93291 4.82616 8.69099 4.39554 8.26037C3.96491 7.82975 3.72299 7.2457 3.72299 6.63671C3.72299 6.02772 3.96491 5.44368 4.39554 5.01306C4.82616 4.58243 5.4102 4.34051 6.01919 4.34051V4.34051ZM6.01919 5.54051C5.72846 5.54051 5.44964 5.65601 5.24406 5.86158C5.03849 6.06716 4.92299 6.34598 4.92299 6.63671C4.92299 6.92744 5.03849 7.20627 5.24406 7.41184C5.44964 7.61742 5.72846 7.73291 6.01919 7.73291C6.30992 7.73291 6.58875 7.61742 6.79432 7.41184C6.9999 7.20627 7.11539 6.92744 7.11539 6.63671C7.11539 6.34598 6.9999 6.06716 6.79432 5.86158C6.58875 5.65601 6.30992 5.54051 6.01919 5.54051V5.54051ZM2.99999 15.6001C2.84086 15.6001 2.68825 15.6633 2.57573 15.7758C2.46321 15.8884 2.39999 16.041 2.39999 16.2001V17.4001C2.39999 18.1958 2.71606 18.9588 3.27867 19.5214C3.84128 20.084 4.60434 20.4001 5.39999 20.4001H18.6C19.3956 20.4001 20.1587 20.084 20.7213 19.5214C21.2839 18.9588 21.6 18.1958 21.6 17.4001V16.2001C21.6 16.041 21.5368 15.8884 21.4243 15.7758C21.3117 15.6633 21.1591 15.6001 21 15.6001H2.99999ZM3.59999 17.4001V16.8001H20.4V17.4001C20.4 17.8775 20.2104 18.3353 19.8728 18.6729C19.5352 19.0105 19.0774 19.2001 18.6 19.2001H5.39999C4.9226 19.2001 4.46477 19.0105 4.1272 18.6729C3.78964 18.3353 3.59999 17.8775 3.59999 17.4001Z" fill="black"/>
</svg>

<svg xmlns="http://www.w3.org/2000/svg" width="24" height="24" fill="none" xmlns:v="https://vecta.io/nano"><path d="M11.984 3.588a2.67 2.67 0 0 1 1.89.783c.501.501.783 1.181.783 1.89s-.282 1.388-.783 1.89a2.67 2.67 0 0 1-1.89.783c-.709 0-1.389-.282-1.89-.783s-.783-1.181-.783-1.89.282-1.389.783-1.89 1.181-.783 1.89-.783v.001zm0 1.2a1.47 1.47 0 0 0-1.472 1.472 1.47 1.47 0 0 0 1.472 1.472c.391 0 .765-.155 1.042-.431s.431-.651.431-1.042-.155-.765-.431-1.042-.651-.431-1.042-.431v.001zM3.619 13.8a.6.6 0 0 1-.6.6.6.6 0 0 1-.6-.6v-2.983a1.2 1.2 0 0 1 1.06-1.192l.14-.008h3.308c-.175.301-.281.637-.312.984l-.01.216H3.618V13.8h.001zm17.369.6a.6.6 0 0 0 .6-.6v-2.983l-.008-.139a1.2 1.2 0 0 0-1.192-1.061h-3.341c.175.304.288.652.314 1.021l.006.18h3.02V13.8a.6.6 0 0 0 .6.6h0zm-6.019-4.783a1.2 1.2 0 0 1 1.192 1.061l.007.139V13.8a.6.6 0 0 1-.6.6.6.6 0 0 1-.6-.6v-2.983H9.006V13.8a.6.6 0 0 1-.6.6.6.6 0 0 1-.6-.6v-2.983a1.2 1.2 0 0 1 1.06-1.192l.14-.008h5.962.001zm5.297-2.98c0-.609-.242-1.193-.672-1.624s-1.015-.673-1.624-.673-1.193.242-1.624.673-.673 1.015-.673 1.624.242 1.193.673 1.624 1.015.673 1.624.673 1.193-.242 1.624-.673.672-1.015.672-1.624h0zm-3.392 0c0-.291.116-.57.321-.775s.484-.321.775-.321.57.115.775.321.321.484.321.775-.116.57-.321.775-.484.321-.775.321-.57-.115-.775-.321-.321-.484-.321-.775zM6.019 4.341c.609 0 1.193.242 1.624.673s.673 1.015.673 1.624-.242 1.193-.673 1.624-1.015.673-1.624.673-1.193-.242-1.624-.673-.673-1.015-.673-1.624.242-1.193.673-1.624 1.015-.673 1.624-.673h0zm0 1.2c-.291 0-.57.115-.775.321s-.321.484-.321.775.115.57.321.775.484.321.775.321.57-.115.775-.321.321-.484.321-.775-.115-.57-.321-.775-.484-.321-.775-.321h0zM3 15.6a.6.6 0 0 0-.6.6v1.2a3 3 0 0 0 3 3h13.2a3 3 0 0 0 3-3v-1.2a.6.6 0 0 0-.6-.6H3zm.6 1.8v-.6h16.8v.6a1.8 1.8 0 0 1-1.8 1.8H5.4a1.8 1.8 0 0 1-1.8-1.8z" fill="#000"/></svg>
